packages/kaspersky-hexa-ui-icons/src/iconsSVGs/32/Connection.svg

<svg width="32" height="32" viewBox="0 0 32 32" fill="none" xmlns="http://www.w3.org/2000/svg">
<path fill-rule="evenodd" clip-rule="evenodd" d="M28.9988 16.1752C28.9051 23.2741 23.1212 29 16 29C8.8203 29 3 23.1797 3 16C3 8.8203 8.8203 3 16 3C23.1391 3 28.9341 8.7546 28.9994 15.8782C29.0003 15.9771 29.0001 16.0764 28.9988 16.1752ZM12.7457 26.5107C11.9384 25.1164 11.3022 23.213 10.9161 21H6.19941C7.53756 23.6177 9.89367 25.6286 12.7457 26.5107ZM5.41406 19H10.6451C10.5501 18.0369 10.5 17.0325 10.5 16C10.5 14.9674 10.5501 13.963 10.6451 13H5.41407C5.14434 13.9536 5 14.96 5 16C5 17.04 5.14433 18.0463 5.41406 19ZM6.19943 11H10.9161C11.3022 8.78694 11.9384 6.88365 12.7456 5.48936C9.89366 6.37141 7.53759 8.38229 6.19943 11ZM15.9954 5C15.9015 5.00116 15.6541 5.03965 15.2546 5.43796C14.8381 5.8531 14.3725 6.55484 13.9394 7.58359C13.5373 8.53889 13.1974 9.69469 12.949 11H19.051C18.8026 9.69469 18.4627 8.53888 18.0606 7.58358C17.6275 6.55483 17.1619 5.8531 16.7455 5.43796C16.3459 5.03965 16.0985 5.00116 16.0046 5H15.9954ZM25.8006 21C24.4624 23.6177 22.1063 25.6286 19.2544 26.5106C20.0616 25.1163 20.6978 23.213 21.0839 21H25.8006ZM26.5859 19H21.3549C21.4499 18.0369 21.5 17.0325 21.5 16C21.5 14.9674 21.4499 13.963 21.3549 13H26.5859C26.7682 13.6445 26.8933 14.3132 26.9552 15C27.0145 15.6587 27.0145 16.3413 26.9552 17C26.8933 17.6868 26.7682 18.3554 26.5859 19ZM25.8006 11H21.0839C20.6978 8.78695 20.0616 6.88365 19.2544 5.48937C22.1063 6.37141 24.4624 8.3823 25.8006 11ZM19.5 16C19.5 17.0446 19.4454 18.0495 19.3445 19H12.6555C12.5546 18.0495 12.5 17.0446 12.5 16C12.5 14.9553 12.5546 13.9504 12.6555 13H19.3445C19.4454 13.9504 19.5 14.9553 19.5 16ZM12.949 21H19.051C18.8026 22.3053 18.4627 23.4611 18.0606 24.4164C17.6275 25.4451 17.1619 26.1469 16.7455 26.562C16.3392 26.967 16.0903 27 16 27C15.9098 27 15.6608 26.967 15.2546 26.562C14.8381 26.1468 14.3725 25.4451 13.9394 24.4164C13.5373 23.4611 13.1974 22.3053 12.949 21Z" fill="black"/>
</svg>

<svg xmlns="http://www.w3.org/2000/svg" width="32" height="32" fill="none" viewBox="0 0 32 32"><path fill="#000" fill-rule="evenodd" d="M28.9988 16.1752C28.9051 23.2741 23.1212 29 16 29 8.8203 29 3 23.1797 3 16S8.8203 3 16 3c7.1391 0 12.9341 5.7546 12.9994 12.8782.0009.0989.0007.1982-.0006.297M12.7457 26.5107c-.8073-1.3943-1.4435-3.2977-1.8296-5.5107H6.1994c1.3382 2.6177 3.6943 4.6286 6.5463 5.5107M5.4141 19h5.231a30.6 30.6 0 0 1-.1451-3c0-1.0326.0501-2.037.1451-3h-5.231C5.1443 13.9536 5 14.96 5 16s.1443 2.0463.414 3m.7853-8h4.7167c.3861-2.213 1.0223-4.1163 1.8295-5.5106-2.852.882-5.208 2.8929-6.5462 5.5106m9.796-6c-.0939.0012-.3413.0396-.7408.438-.4165.4151-.8821 1.1168-1.3152 2.1456-.4021.9553-.742 2.111-.9904 3.4164h6.102c-.2484-1.3053-.5883-2.4611-.9904-3.4164-.4331-1.0288-.8987-1.7305-1.3151-2.1456-.3996-.3983-.647-.4368-.7409-.438zm9.8052 16c-1.3382 2.6177-3.6943 4.6286-6.5462 5.5106.8072-1.3943 1.4434-3.2976 1.8295-5.5106zm.7853-2h-5.231c.095-.9631.1451-1.9675.1451-3s-.0501-2.037-.1451-3h5.231a10.96 10.96 0 0 1 .3693 2 11.27 11.27 0 0 1 0 2 10.96 10.96 0 0 1-.3693 2m-.7853-8h-4.7167c-.3861-2.213-1.0223-4.1163-1.8295-5.5106 2.8519.882 5.208 2.8929 6.5462 5.5106M19.5 16c0 1.0446-.0546 2.0495-.1555 3h-6.689c-.1009-.9505-.1555-1.9554-.1555-3s.0546-2.0496.1555-3h6.689c.1009.9504.1555 1.9553.1555 3m-6.551 5h6.102c-.2484 1.3053-.5883 2.4611-.9904 3.4164-.4331 1.0287-.8987 1.7305-1.3151 2.1456-.4063.405-.6552.438-.7455.438-.0902 0-.3392-.033-.7454-.438-.4165-.4152-.8821-1.1169-1.3152-2.1456-.4021-.9553-.742-2.1111-.9904-3.4164"/></svg>
